X:1
T:O what shall I do? - Wilbye
T:#
%%score [ 1 2 3 ]
L:1/8
Q:1/4=108
M:2/2
K:F
V:1 treble nm="Soprano" snm="S"
V:2 treble nm="Alto" snm="A"
V:3 bass nm="Bass" snm="B"
V:1
"^O what shall I do?" z4!f! A4- | A2 A2 A2 G2 | A6 A2 | G2 A2 B2 A2 | G4 G4 | %5
w: O|* what shall I|do, or|whi- ther shall I|turn me?|
 z2 A3 A"^John Wilbye\n (1574-1638)" G2- |[M:2/2] G2 F2 E2 E2 | D8 | z2 B3 B A2- | A2 G3 G F2 | %10
w: Shall I make|* un- to her|eyes?|shall I make|* un- to her|
 E4 c4 | F4 G4 | A4 A4 | z4 z2 d2 | c2 A2 B2 G2 | A2 F2 E3 E | D2 A2 AGFE | D2 B2 BAGF | %18
w: eyes? O|no, they'll|burn me!|Shall|I seal up my|eyes and speak my|part? Then in a flood of|tears, then in a flood of|
 E2 c2 cBAG | A6 (GF) | G4 F4 | E4!mp! E2 F2- | F2 G4 A2- | A2"^cresc." A2 A4- | %24
w: tears, then in a flood of|tears I *|drown my|heart. For tears|* being stopped|* will swell,|
 A2!f! (A=B) (c3 _B/A/) | (GFGA B3 A/G/ | FEFG A3 G/F/ | EDEF G3 F/E/ | DCDE F3 E/D/ | %29
w: * will * swell, * *|||||
 C2) A2 G2 F2 | E6 E2 | F2 G2 A2 =B2 | ^c4 d4 | A8- | A2 c2 =B2 A2 | (GA=Bc d4- | d2) ^F2 G2 G2 | %37
w: * will swell for|scope, Though|they o'er- flow love,|life and|hope,|* By beau- ty's|eye * * * *|* I'll choose to|
 !fermata!^F8 ||"^\" z8 |!mf! A3 G F2 (ED) | ^C6 D2 | E2 F2 G2 E2 | F4 E4 | z8 | d3 c B2 (AG) | %45
w: die.||At thy feet I *|fall, fair|crea- ture rich in|beau- ty,||And for pi- ty *|
 ^F2 G2 A3 G | G4!mp! G4- | G4 F4- | F4 E4 | D2 C2 D4 | E4 c4- | c4 B4- | B4 A4 | G2 F2 E4 | %54
w: call, for pi- ty|call; O|* kill|* not|love and du-|ty, O|* kill|* not|love and du-|
 F4 A4- | A4"^cresc." G4- | G4 F4 | E2 D2 E4 | ^F4!f! d4- | d4 c4- | c4 B4 | %61
w: ty, O|* kill|* not|love and du-|ty, O|* kill|* not|
 A2!>(! G2 (G2"^." ^F2)!>)! | G4 z4 | z2!mf! G2 A2 =B2 | c4 =B4 | A3 A G2 G2 | ^F2 F2 E2 E2 | %67
w: love and du\- *|ty.|Let thy smooth|tongue fan|on my sense thy|breath, To stay thine|
 D6 D2 | D4 D4 | ^F4 E4 | D8 | z8 | z4 z2!f! dd | ^c4 =c4 | =B4 B4 | A2 A4 AA | G4 G4 | ^F4 =F4 | %78
w: eyes from|burn- ing|me to|death.||But if|mer- cy|be ex-|il- ed From a|thing so|fair com-|
 E8 | D4 A2 A2 | d3 d c2 =B2 |!>(! A8!>)! | G4!p! =B4 | ^F6 G2 | A4[Q:1/4=106] A4 | %85
w: pil-|ed, from a|thing so fair com-|pil-|ed, Then|pa- tient-|ly By|
[Q:1/4=102] ^C4[Q:1/4=98] F4 |[Q:1/4=94] E6[Q:1/4=90] E2 |[Q:1/4=90] !fermata!^F8 |] %88
w: thee I'll|die, I'll|die.|
V:2
!f! F6 E2 | F3 (E DC D2) | ^C6 E2 | D2 C2 (DE) F2 | E4 E4 | z2 F3 F E2- |[M:2/2] E2 D2 ^C2 (=B,C) | %7
w: O what|shall I * * *|do, or|whi- ther shall * I|turn me?|Shall I make|* un- to her *|
 D8 | z2 G3 G F2- | F2 E3 E D2 | C2 A2 F2 E2 | D8 | ^C6 F2 | G2 A2 F2 G2 | E2 F2 D2 (E2- | %15
w: eyes?|shall I make|* un- to her|eyes? O no, they'll|burn|me! Shall|I seal up my|eyes and speak my|
 ED D4 ^C2) | D8 | z2 G2 GFED | C2 E2 AGFE | F3 F E4- | E4 D4 | ^C6!mp! C2 | D4 E4 | %23
w: |part?|Then in a flood of|tears, then in a flood of|tears I drown|* my|heart. For|tears being|
"^cresc." F6 (ED) | E2!f!!f! (FG) (A3 G/F/) | (EDEF G3 F/E/ | DCDE F3 E/D/ | C=B,CD E3 D/C/ | %28
w: stopped will *|swell, will * swell, * *||||
 =B,A,B,C D3 C/B,/ | A,2) F2 E2 D2 | ^C6 =C2 | D2 E2 F2 G2 | A4 G2 F2- | F2 (ED E4) | %34
w: |* will swell for|scope, Though|they o'er- flow love,|life love, life|* and * *|
 D2 A,2 D2 C2 | =B,2 G,2 B,2 (A,G,) | A,2 D2 =B,3 ^C | !fermata!D8 ||!mf! E2 E2 A2 (GF) | %39
w: hope, By beau- ty's|eye I'll choose to *|die, I'll choose to|die.|At thy feet I *|
 E2 E2 D2 F2 | E4 z4 | z2 C2 (D4- | D2 ^C=B,) C4 | F3 E D2 (CB,) | A,2 A2 G2 B2 | A2 G4 ^F2 | %46
w: fall, fair crea- ture|rich|in beau\-|* * * ty,|And for pi- ty *|call; O kill not|love and du-|
 G4!mp! E4- | E4 D4- | D4 C4 | =B,2 C2 (C2 B,2) | C4 A4- | A4 G4- | G4 F4 | E2 A2 G4 | A4 F4- | %55
w: ty, O|* kill|* not|love and du\- *|ty, O|* kill|* not|love and du-|ty, ~O|
 F4"^cresc." E4- | E4 D4 | ^C2 D2 (D2 C2) | D4!f! B4- | B4 A4- | A4 G4 | ^F2!>(! B2 A4!>)! | %62
w: * kill|* not|love and du\- *|ty, O|* kill|* not|love and du-|
 G2!mf! =B,2 C2 D2 | E6 D2 | E2 ^F2 G4 | ^F4 E4 | D2 D4 ^C2 | D4 z2 A,2 | =B,3 A, (B,C D2- | %69
w: ty. Let thy smooth|tongue fan|on my sense|thy breath,|To stay thine|eyes from|burn- ing me * *|
 D2) (^C=B,) C2!f! AG | ^F4 =F4 | E4 E4 | (D2 E2 ^F2 G2) | A2 E3 F G2- | GF (ED E4- | E2) D2 D4- | %76
w: * to * death. But if|mer- cy|be ex-|il\- * * *|ed From a thing|* so fair * *|* com- pil\-|
 (D2 ^C=B, C4) | D8 | z4 z2 AA | ^F6 F2 | G2 D2 (E^F G2- |!>(! G2 ^FE F4)!>)! | G4!p! G4 | D6 E2 | %84
w: |ed,|from a|thing so|fair com- pil\- * *||ed, Then|pa- tient-|
 ^F8 | E4 D4- | D4 ^C4 | !fermata!D8 |] %88
w: ly|By thee|* I'll|die.|
V:3
!f! D6 ^C2 | (D2 A,2) B,4 | A,6 C2 | B,2 A,2 G,2 F,2 | C4 C,4 | A,4 A,4 |[M:2/2] A,6 G,2 | %7
w: O what|shall * I|do, or|whi- ther shall I|turn me?|Shall I|make un-|
 ^F,4 F,4 | G,8 | G,8 | A,4 A,4 | B,8 | A,6 D2 | C2 A,2 B,2 G,2 | A,2 F,2 G,2 E,2 | F,3 G, A,3 A, | %16
w: to her|eyes?|O|no, they'll|burn|me! Shall|I seal up my|eyes and speak my|part, and speak my|
 D,6 D2 | DCB,A, G,2 C2 | CB,"^;"A,G,"^." F,4- | F,2 (E,D,) ^C,4- | C,4 D,4 | A,6!mp! A,2 | %22
w: part? Then|in a flood of tears, then|in a flood of tears|* I * drown|* my|heart. For|
 B,4 C4 |"^cresc." D6 (^C=B,) | ^C2!f! D2 (A,G,A,B,) | (C3 B,/A,/ G,F,G,A, | B,3 A,/G,/ F,E,F,G, | %27
w: tears being|stopped will *|swell, will swell, * * *|||
 A,3 G,/F,/ E,D,E,F, | G,3 F,/E,/) (D,C,D,E,) | F,4 G,4 | A,8- | A,4 A,4 | A,8 | A,2 A,4 G,2 | %34
w: |* * * for * * *|scope, Though|they|* o'er-|flow|love, life and|
 ^F,6 F,2 | G,6 (^F,E,) | ^F,2 D,2 G,2 G,2 | !fermata!D,8 ||!mf! A,3 G, F,2 E,D, | ^C,4 D,4 | %40
w: hope, By|beau- ty's *|eye I'll choose to|die.|At thy feet I *|fall, fair|
 A,6"^." B,2 | C2 A,2 B,4 | A,8 | D3 C B,2 (A,G,) | ^F,4 G,4 | D4 D,4 |!>(! G,8!>)! |!mp! G,8 | %48
w: crea- ture|rich in beau-|ty,|And for pi- ty *|call, for|pi- ty|call;|O|
 G,8 | G,8 | C,8 |"^\" C,8 | C,8- | C,8 | F,8 | A,8 | A,8 | A,8 |!f! D8 | D,8 | D8- |!>(! D8!>)! | %62
w: kill|not|love|and|du\-||ty,|O|kill|not|love|and|du\-||
 G,2!mf! G,2 A,2 =B,2 | C6 =B,2 | A,4 G,4 | D2 D,2 (E,^F,G,A,) | (=B,^C) D2 A,2 A,2 | =B,6 ^F,2 | %68
w: ty. Let thy smooth|tongue fan|on my|sense thy breath, * * *|* * To stay thine|eyes from|
 (G,3 ^F, G,A,) =B,2 | A,4 A,4 | D,6!f! DD | ^C4 =C4 | =B,4 B,4 | A,2 A,4 E,F, | G,4 G,4 | %75
w: burn\- * * * ing|me to|death. But if|mer- cy|be ex-|il- ed From a|thing so|
 ^F,4 =F,4 | (E,8- | E,2 D,2 D,4- | D,2 ^C,=B,, C,4) | D,6 DD | =B,3 B, A,2 G,2 |!>(! D,8!>)! | %82
w: fair com-|pil\-|||ed, from a|thing so fair com-|pil-|
 G,4!p! G,4 | =B,4 B,4 | ^F,6 G,2 | A,8 | A,,8 | !fermata!D,8 |] %88
w: ed, Then|pat- ient-|ly By|thee|I'll|die.|

